static/assets/images/icons/floppy-disk.svg

<svg width="256" height="256" viewBox="0 0 256 256" fill="none" xmlns="http://www.w3.org/2000/svg">
<path d="M50.2222 28C44.3285 28 38.6762 30.3413 34.5087 34.5087C30.3413 38.6762 28 44.3285 28 50.2222V205.778C28 211.671 30.3413 217.324 34.5087 221.491C38.6762 225.659 44.3285 228 50.2222 228H205.778C211.671 228 217.324 225.659 221.491 221.491C225.659 217.324 228 211.671 228 205.778V64.5721C228 58.9412 225.763 53.5409 221.781 49.5592L207.684 35.4622C202.906 30.6842 196.426 28 189.669 28H181.857V94.6667C181.857 97.6135 180.686 100.44 178.603 102.523C176.519 104.607 173.693 105.778 170.746 105.778H81.857C78.9102 105.778 76.084 104.607 74.0003 102.523C71.9166 100.44 70.7459 97.6135 70.7459 94.6667V28H50.2222ZM139.04 39.1111C132.005 39.1111 126.301 44.8145 126.301 51.85V81.9278C126.301 88.9633 132.005 94.6667 139.04 94.6667H146.896C153.931 94.6667 159.635 88.9633 159.635 81.9278V51.85C159.635 44.8145 153.931 39.1111 146.896 39.1111H139.04ZM72.4444 128H183.556C186.502 128 189.329 129.171 191.412 131.254C193.496 133.338 194.667 136.164 194.667 139.111V205.778H61.3333V139.111C61.3333 136.164 62.504 133.338 64.5877 131.254C66.6714 129.171 69.4976 128 72.4444 128Z" fill="black"/>
</svg>

<svg xmlns="http://www.w3.org/2000/svg" fill="none" viewBox="0 0 256 256"><path fill="#000" d="M50.222 28A22.223 22.223 0 0 0 28 50.222v155.556A22.22 22.22 0 0 0 50.222 228h155.556A22.22 22.22 0 0 0 228 205.778V64.572a21.23 21.23 0 0 0-6.219-15.013l-14.097-14.097A25.48 25.48 0 0 0 189.669 28h-7.812v66.667a11.11 11.11 0 0 1-11.111 11.111H81.857a11.11 11.11 0 0 1-11.111-11.111V28zm88.818 11.111c-7.035 0-12.739 5.704-12.739 12.739v30.078c0 7.035 5.704 12.739 12.739 12.739h7.856c7.035 0 12.739-5.704 12.739-12.74V51.85c0-7.035-5.704-12.739-12.739-12.739zM72.444 128h111.112a11.11 11.11 0 0 1 11.111 11.111v66.667H61.333v-66.667A11.11 11.11 0 0 1 72.444 128"/></svg>
